!! 00000] TT[WS
!!!OTL: Renben qiangdao zhan liaoxian
!!!ARE: Asia, China, Shanxi Zuoquan
!! Ethnic Group: Han
!! WII, 211 (2)
!!!SCT: J0716
!!!YEM: Copyright 1995, estate of Helmut Schaffrath.
**kern
*ICvox
*Ivox
*M2/4
*k[f#]
*G:
{8ee
8dd
8b
8b
=1
8ee
8dd
4b
=2
8b
8gg
8ee
8dd
=3
8.g
16a
4b}
=4
{8ee
8dd
8ee
8dd
=5
8b
8a
4g
=6
8b
8dd
8a
8g
=7
8.e
16d
4e}
=8
{8g
8a
4b
=9
8.dd
16b
8a
8g
=10
8.e
16d
4e}
==
!!!AGN: Xiaodiao. Sushuo
!!!ONB: ESAC (Essen Associative Code) Database: CHINA
!!!AMT: simple duple
!!!AIN: vox
!!!EED: Helmut Schaffrath
!!!EEV: 1.0
*-
